X:300
T: EIN GROBSCHMIDT SASS IN GUTER RUH
N: F0526
O: Europa, Mitteleuropa, Deutschland
R: Studenten - Lied
M: 2/4
L: 1/8
K: G
D | GGGG | GED
D | G2d2 | B2G2 | ADD
D | EEDD | EED
D | EEFF | G2
d2 | BBAA | G2z

